X:84
T:Blue Bonnets O'er the Border
C:arr. Carlo Minasi
M:6/8
L:1/8
B:Chappell's One Hundred Scotch Melodies
B:Arranged for the Concertina by Carlo Minasi
Q:"Allegro  "3/8=100
Z:Peter Dunk 2012
K:C
!mf!L[c3G3E3C3]L[c3G3E3C3]|([cGEC]ed) (c>AG)|\
[cAF]AA A>Ag| L(age) ([eG]>d[cE])|
L[c3G3E3C3]L[c3G3E3C3]|([cGEC]ed) (c>AG)|\
([AF]>BA) ([GEC]E>G)|([AF]c)>E L(E>DC)||
(c>eg) (gec)|([af]>[ge][eG]) ([eG]>[dF][cE])|\
(ceg) (a>bc')|(c>de) (e>dc)|
(c>eg) (gec)|L([af]>[ge][eG]) ([dF]>[ce][dF])|\
([ce]>AA) (GEG)|(AcE) (E>DC)||

